src/img/promo-gpon-page/application-background.svg

<svg width="1677" height="473" viewBox="0 0 1677 473" fill="none" xmlns="http://www.w3.org/2000/svg">
    <path d="M185.061 93.5194C185.061 93.5194 285.723 10.0047 433.373 58.6537C544.24 95.0984 563.583 276.107 903.433 260.913C1243.28 245.72 1340.44 409.008 1340.44 409.008" stroke="white" stroke-opacity="0.2" stroke-width="1.34" stroke-miterlimit="10"/>
    <path d="M140.12 125.41C140.12 125.41 189.988 74.4304 259.672 58.8896C301.42 49.6087 352.627 53.2501 405.51 79.2428C416.558 84.6068 426.896 91.3285 436.284 99.2528C482.684 138.698 516.029 183.255 573.383 216.68C645.911 259.033 756.951 264.938 932.505 252.621C1236.5 231.23 1364.85 362.089 1416.17 424.686" stroke="white" stroke-opacity="0.2" stroke-width="1.34" stroke-miterlimit="10"/>
    <path d="M95.1566 157.295C95.1566 157.295 151.559 90.7071 219.335 71.3425C265.33 58.2382 322.659 64.5363 377.627 99.9786C389.067 107.263 399.628 115.845 409.103 125.555C461.727 179.999 498.047 224.262 561.707 252.343C645.956 289.557 778.06 262.09 961.521 244.255C1229.69 218.185 1389.16 315.112 1491.84 440.29" stroke="white" stroke-opacity="0.2" stroke-width="1.34" stroke-miterlimit="10"/>
    <path d="M50.1696 189.181C50.1696 189.181 112.802 106.511 179.004 83.7347C229.161 66.4712 292.784 75.6003 349.726 120.672C361.484 129.911 372.261 140.339 381.886 151.79C440.296 221.586 480.129 264.934 549.899 288.014C646.034 319.656 799.106 260.189 990.456 235.989C1222.94 206.491 1413.4 268.238 1567.4 455.992" stroke="white" stroke-opacity="0.2" stroke-width="1.34" stroke-miterlimit="10"/>
    <path d="M5.20555 221.087C5.20555 221.087 73.966 122.127 138.672 96.1658C203.379 70.2048 290.888 92.7133 354.69 178.068C418.492 263.422 462.242 305.412 538.222 323.546C753.231 374.859 1230.35 -31.702 1643.15 471.562" stroke="white" stroke-opacity="0.2" stroke-width="1.34" stroke-miterlimit="10"/>
</svg>

<svg width="1677" height="473" fill="none" xmlns="http://www.w3.org/2000/svg"><path d="M185.061 93.52s100.662-83.515 248.312-34.866c110.867 36.444 130.21 217.453 470.06 202.259 339.847-15.193 437.007 148.095 437.007 148.095" stroke="#fff" stroke-opacity=".2" stroke-width="1.34" stroke-miterlimit="10"/><path d="M140.12 125.41s49.868-50.98 119.552-66.52c41.748-9.281 92.955-5.64 145.838 20.353a147.768 147.768 0 0 1 30.774 20.01c46.4 39.445 79.745 84.002 137.099 117.427 72.528 42.353 183.568 48.258 359.122 35.941C1236.5 231.23 1364.85 362.089 1416.17 424.686" stroke="#fff" stroke-opacity=".2" stroke-width="1.34" stroke-miterlimit="10"/><path d="M95.157 157.295s56.402-66.588 124.178-85.952c45.995-13.105 103.324-6.807 158.292 28.636a176.228 176.228 0 0 1 31.476 25.576c52.624 54.444 88.944 98.707 152.604 126.788 84.249 37.214 216.353 9.747 399.814-8.088 268.169-26.07 427.639 70.857 530.319 196.035" stroke="#fff" stroke-opacity=".2" stroke-width="1.34" stroke-miterlimit="10"/><path d="M50.17 189.181s62.632-82.67 128.834-105.446c50.157-17.264 113.78-8.135 170.722 36.937a217.81 217.81 0 0 1 32.16 31.118c58.41 69.796 98.243 113.144 168.013 136.224 96.135 31.642 249.207-27.825 440.557-52.025 232.484-29.498 422.944 32.249 576.944 220.003" stroke="#fff" stroke-opacity=".2" stroke-width="1.34" stroke-miterlimit="10"/><path d="M5.206 221.087s68.76-98.96 133.466-124.921c64.707-25.961 152.216-3.453 216.018 81.902 63.802 85.354 107.552 127.344 183.532 145.478C753.231 374.859 1230.35-31.702 1643.15 471.562" stroke="#fff" stroke-opacity=".2" stroke-width="1.34" stroke-miterlimit="10"/></svg>
